X: 212
T: Feather and Fin
C: Robin Ellis
R: reel
Z: 2010 John Chambers <jc:trillian.mit.edu>
S: printed MS of unknown origin
M: C|
L: 1/8
K: D
A2 \
| "D"dcdB A2A2 | dcdB A2Bc | dcde "F#m"gfed | "A7"e2A2 A2Bc \
| "D"dcdB A2A2 | "G"gfgf "Em"e2fg | "A7"a2A2 A2Bc | "D"d2d2 d2 :|
|: fg \
| "D"agf2 "A7"gfe2 | "D"fedc d2A2 | "G"BcdB "D"ABcd | "Em"fagf "A7"e2fg \
| "D"agf2 "A7"gfe2 | "D"fedc d2A2 | "G"BcdB "A7"cdec | "D"d2f2 d2 :|

%%sep 1 1 500

